images/scroll_white.svg

<svg width="117" height="14" viewBox="0 0 117 14" fill="none" xmlns="http://www.w3.org/2000/svg">
<g opacity="0.9">
<path d="M21.944 10L24.712 4.256L27.48 10H26.696L24.712 5.808L22.728 10H21.944ZM28.1819 10.064V6H28.8619V8.672L31.7579 5.936V10H31.0779V7.368L28.1819 10.064ZM34.9073 10.064C34.3206 10.064 33.83 9.86667 33.4353 9.472C33.046 9.072 32.8513 8.58133 32.8513 8C32.8513 7.41867 33.046 6.93067 33.4353 6.536C33.83 6.136 34.3206 5.936 34.9073 5.936C35.5153 5.936 36.0246 6.14667 36.4353 6.568L35.9953 7.048C35.686 6.73867 35.3233 6.584 34.9073 6.584C34.518 6.584 34.1953 6.72 33.9393 6.992C33.6886 7.25867 33.5633 7.59467 33.5633 8C33.5633 8.40533 33.6886 8.744 33.9393 9.016C34.1953 9.28267 34.518 9.416 34.9073 9.416C35.3233 9.416 35.686 9.26133 35.9953 8.952L36.4353 9.432C36.0246 9.85333 35.5153 10.064 34.9073 10.064ZM38.2159 10V6.624H36.9519V6H40.2159V6.624H38.8959V10H38.2159ZM44.038 10V9.6C43.6967 9.90933 43.2727 10.064 42.766 10.064C42.1793 10.064 41.6913 9.86667 41.302 9.472C40.918 9.07733 40.726 8.58667 40.726 8C40.726 7.41333 40.918 6.92267 41.302 6.528C41.6913 6.13333 42.1793 5.936 42.766 5.936C43.2727 5.936 43.6967 6.09067 44.038 6.4V6H44.726V10H44.038ZM42.782 9.416C43.0593 9.416 43.3073 9.35733 43.526 9.24C43.7447 9.12267 43.9153 8.96533 44.038 8.768V7.232C43.9153 7.03467 43.7447 6.87733 43.526 6.76C43.3073 6.64267 43.0593 6.584 42.782 6.584C42.3927 6.584 42.07 6.72 41.814 6.992C41.5633 7.25867 41.438 7.59467 41.438 8C41.438 8.40533 41.5633 8.744 41.814 9.016C42.07 9.28267 42.3927 9.416 42.782 9.416ZM46.0875 10.064V6H46.7675V8.672L49.6635 5.936V10H48.9835V7.368L46.0875 10.064ZM48.6875 4.32H49.2395C49.2288 4.72533 49.1088 5.03467 48.8795 5.248C48.6502 5.46133 48.3462 5.568 47.9675 5.568C47.5835 5.568 47.2768 5.46133 47.0475 5.248C46.8235 5.02933 46.7062 4.72 46.6955 4.32H47.2395C47.2448 4.58133 47.3115 4.78133 47.4395 4.92C47.5728 5.05333 47.7488 5.12 47.9675 5.12C48.1808 5.12 48.3515 5.05333 48.4795 4.92C48.6075 4.78667 48.6768 4.58667 48.6875 4.32ZM51.8209 10V6.624H50.5569V6H53.8209V6.624H52.5009V10H51.8209ZM56.3792 10.064C55.7925 10.064 55.3019 9.86667 54.9072 9.472C54.5179 9.072 54.3232 8.58133 54.3232 8C54.3232 7.41867 54.5179 6.93067 54.9072 6.536C55.2965 6.136 55.7712 5.936 56.3312 5.936C56.9019 5.936 57.3659 6.136 57.7232 6.536C58.0859 6.93067 58.2725 7.47467 58.2832 8.168H55.0352C55.0672 8.54133 55.2112 8.84267 55.4672 9.072C55.7285 9.30133 56.0325 9.416 56.3792 9.416C56.8379 9.416 57.2272 9.256 57.5472 8.936L57.9872 9.416C57.5765 9.848 57.0405 10.064 56.3792 10.064ZM56.2912 6.568C56.0192 6.568 55.7659 6.65333 55.5312 6.824C55.2965 6.98933 55.1445 7.23733 55.0752 7.568H57.5072C57.4592 7.248 57.3232 7 57.0992 6.824C56.8752 6.648 56.6059 6.56267 56.2912 6.568ZM61.4619 10V6H63.1579C63.6059 6 63.9499 6.096 64.1899 6.288C64.4299 6.47467 64.5499 6.73867 64.5499 7.08C64.5499 7.432 64.4085 7.69867 64.1259 7.88C64.5845 8.04533 64.8139 8.368 64.8139 8.848C64.8139 9.19467 64.6885 9.47467 64.4379 9.688C64.1925 9.896 63.8272 10 63.3419 10H61.4619ZM62.1499 7.672H63.2379C63.4032 7.672 63.5419 7.62933 63.6539 7.544C63.7712 7.45333 63.8299 7.32 63.8299 7.144C63.8299 6.968 63.7712 6.83467 63.6539 6.744C63.5365 6.65333 63.3979 6.608 63.2379 6.608H62.1499V7.672ZM62.1499 9.392H63.3979C63.6005 9.392 63.7659 9.34133 63.8939 9.24C64.0219 9.13867 64.0859 8.98933 64.0859 8.792C64.0859 8.60533 64.0219 8.46133 63.8939 8.36C63.7659 8.25867 63.6005 8.208 63.3979 8.208H62.1499V9.392ZM65.2481 10L67.3601 5.936L69.4801 10H68.6961L67.3681 7.344L66.0161 10H65.2481ZM71.9176 10.064C71.331 10.064 70.8403 9.86667 70.4456 9.472C70.0563 9.072 69.8616 8.58133 69.8616 8C69.8616 7.41867 70.0563 6.93067 70.4456 6.536C70.835 6.136 71.3096 5.936 71.8696 5.936C72.4403 5.936 72.9043 6.136 73.2616 6.536C73.6243 6.93067 73.811 7.47467 73.8216 8.168H70.5736C70.6056 8.54133 70.7496 8.84267 71.0056 9.072C71.267 9.30133 71.571 9.416 71.9176 9.416C72.3763 9.416 72.7656 9.256 73.0856 8.936L73.5256 9.416C73.115 9.848 72.579 10.064 71.9176 10.064ZM71.8296 6.568C71.5576 6.568 71.3043 6.65333 71.0696 6.824C70.835 6.98933 70.683 7.23733 70.6136 7.568H73.0456C72.9976 7.248 72.8616 7 72.6376 6.824C72.4136 6.648 72.1443 6.56267 71.8296 6.568ZM74.8403 10V6H76.5363C76.9843 6 77.3283 6.096 77.5683 6.288C77.8083 6.47467 77.9283 6.73867 77.9283 7.08C77.9283 7.432 77.787 7.69867 77.5043 7.88C77.963 8.04533 78.1923 8.368 78.1923 8.848C78.1923 9.19467 78.067 9.47467 77.8163 9.688C77.571 9.896 77.2056 10 76.7203 10H74.8403ZM75.5283 7.672H76.6163C76.7816 7.672 76.9203 7.62933 77.0323 7.544C77.1496 7.45333 77.2083 7.32 77.2083 7.144C77.2083 6.968 77.1496 6.83467 77.0323 6.744C76.915 6.65333 76.7763 6.608 76.6163 6.608H75.5283V7.672ZM75.5283 9.392H76.7763C76.979 9.392 77.1443 9.34133 77.2723 9.24C77.4003 9.13867 77.4643 8.98933 77.4643 8.792C77.4643 8.60533 77.4003 8.46133 77.2723 8.36C77.1443 8.25867 76.979 8.208 76.7763 8.208H75.5283V9.392ZM81.0898 10.064C80.4924 10.064 79.9964 9.86667 79.6018 9.472C79.2071 9.072 79.0098 8.58133 79.0098 8C79.0098 7.41867 79.2071 6.93067 79.6018 6.536C79.9964 6.136 80.4924 5.936 81.0898 5.936C81.6818 5.936 82.1751 6.136 82.5698 6.536C82.9644 6.93067 83.1618 7.41867 83.1618 8C83.1618 8.58133 82.9644 9.072 82.5698 9.472C82.1751 9.86667 81.6818 10.064 81.0898 10.064ZM80.1058 9.016C80.3618 9.28267 80.6898 9.416 81.0898 9.416C81.4898 9.416 81.8151 9.28267 82.0658 9.016C82.3218 8.744 82.4498 8.40533 82.4498 8C82.4498 7.59467 82.3218 7.25867 82.0658 6.992C81.8151 6.72 81.4898 6.584 81.0898 6.584C80.6898 6.584 80.3618 6.72 80.1058 6.992C79.8498 7.25867 79.7218 7.59467 79.7218 8C79.7218 8.40533 79.8498 8.744 80.1058 9.016ZM83.8383 10L86.5903 4.32H87.2383L84.4863 10H83.8383ZM87.9922 10V6H89.6882C90.1362 6 90.4802 6.096 90.7202 6.288C90.9602 6.47467 91.0802 6.73867 91.0802 7.08C91.0802 7.432 90.9389 7.69867 90.6562 7.88C91.1149 8.04533 91.3442 8.368 91.3442 8.848C91.3442 9.19467 91.2189 9.47467 90.9682 9.688C90.7229 9.896 90.3575 10 89.8722 10H87.9922ZM88.6802 7.672H89.7682C89.9335 7.672 90.0722 7.62933 90.1842 7.544C90.3015 7.45333 90.3602 7.32 90.3602 7.144C90.3602 6.968 90.3015 6.83467 90.1842 6.744C90.0669 6.65333 89.9282 6.608 89.7682 6.608H88.6802V7.672ZM88.6802 9.392H89.9282C90.1309 9.392 90.2962 9.34133 90.4242 9.24C90.5522 9.13867 90.6162 8.98933 90.6162 8.792C90.6162 8.60533 90.5522 8.46133 90.4242 8.36C90.2962 8.25867 90.1309 8.208 89.9282 8.208H88.6802V9.392ZM92.4256 10V6H95.8576V10H95.1696V6.624H93.1136V10H92.4256ZM97.2184 6H97.9064V6.4C98.2318 6.09067 98.6558 5.936 99.1784 5.936C99.7651 5.936 100.25 6.13333 100.634 6.528C101.024 6.92267 101.218 7.41333 101.218 8C101.218 8.58667 101.024 9.07733 100.634 9.472C100.25 9.86667 99.7651 10.064 99.1784 10.064C98.6558 10.064 98.2318 9.90933 97.9064 9.6V11.472H97.2184V6ZM99.1624 9.416C99.5518 9.416 99.8718 9.28267 100.122 9.016C100.378 8.744 100.506 8.40533 100.506 8C100.506 7.59467 100.378 7.25867 100.122 6.992C99.8718 6.72 99.5518 6.584 99.1624 6.584C98.8851 6.584 98.6344 6.64533 98.4104 6.768C98.1918 6.88533 98.0238 7.04 97.9064 7.232V8.768C98.0238 8.96 98.1918 9.11733 98.4104 9.24C98.6344 9.35733 98.8851 9.416 99.1624 9.416ZM105.364 10V9.6C105.023 9.90933 104.599 10.064 104.092 10.064C103.505 10.064 103.017 9.86667 102.628 9.472C102.244 9.07733 102.052 8.58667 102.052 8C102.052 7.41333 102.244 6.92267 102.628 6.528C103.017 6.13333 103.505 5.936 104.092 5.936C104.599 5.936 105.023 6.09067 105.364 6.4V6H106.052V10H105.364ZM104.108 9.416C104.385 9.416 104.633 9.35733 104.852 9.24C105.071 9.12267 105.241 8.96533 105.364 8.768V7.232C105.241 7.03467 105.071 6.87733 104.852 6.76C104.633 6.64267 104.385 6.584 104.108 6.584C103.719 6.584 103.396 6.72 103.14 6.992C102.889 7.25867 102.764 7.59467 102.764 8C102.764 8.40533 102.889 8.744 103.14 9.016C103.396 9.28267 103.719 9.416 104.108 9.416ZM107.413 10V6H109.109C109.557 6 109.901 6.096 110.141 6.288C110.381 6.47467 110.501 6.73867 110.501 7.08C110.501 7.432 110.36 7.69867 110.077 7.88C110.536 8.04533 110.765 8.368 110.765 8.848C110.765 9.19467 110.64 9.47467 110.389 9.688C110.144 9.896 109.779 10 109.293 10H107.413ZM108.101 7.672H109.189C109.355 7.672 109.493 7.62933 109.605 7.544C109.723 7.45333 109.781 7.32 109.781 7.144C109.781 6.968 109.723 6.83467 109.605 6.744C109.488 6.65333 109.349 6.608 109.189 6.608H108.101V7.672ZM108.101 9.392H109.349C109.552 9.392 109.717 9.34133 109.845 9.24C109.973 9.13867 110.037 8.98933 110.037 8.792C110.037 8.60533 109.973 8.46133 109.845 8.36C109.717 8.25867 109.552 8.208 109.349 8.208H108.101V9.392ZM113.663 10.064C113.066 10.064 112.57 9.86667 112.175 9.472C111.78 9.072 111.583 8.58133 111.583 8C111.583 7.41867 111.78 6.93067 112.175 6.536C112.57 6.136 113.066 5.936 113.663 5.936C114.255 5.936 114.748 6.136 115.143 6.536C115.538 6.93067 115.735 7.41867 115.735 8C115.735 8.58133 115.538 9.072 115.143 9.472C114.748 9.86667 114.255 10.064 113.663 10.064ZM112.679 9.016C112.935 9.28267 113.263 9.416 113.663 9.416C114.063 9.416 114.388 9.28267 114.639 9.016C114.895 8.744 115.023 8.40533 115.023 8C115.023 7.59467 114.895 7.25867 114.639 6.992C114.388 6.72 114.063 6.584 113.663 6.584C113.263 6.584 112.935 6.72 112.679 6.992C112.423 7.25867 112.295 7.59467 112.295 8C112.295 8.40533 112.423 8.744 112.679 9.016Z" fill="white"/>
<g clip-path="url(#clip0_447_254)">
<path d="M11.7554 5.82319C11.5 5.82319 11.2649 5.9028 11.0675 6.03549C10.8992 5.54602 10.4377 5.19514 9.89781 5.19514C9.6424 5.19514 9.4073 5.27475 9.20993 5.40744C9.04159 4.91797 8.58011 4.56708 8.04025 4.56708C7.81386 4.56708 7.60198 4.629 7.42203 4.73515V2.67702C7.42203 1.9841 6.86767 1.41797 6.18269 1.41797C5.49772 1.41797 4.94335 1.98115 4.94335 2.67702V8.02285L3.86655 7.20314C3.22801 6.71662 2.32245 6.78149 1.75648 7.35647C1.39367 7.72504 1.39367 8.32361 1.75648 8.68924L6.16528 13.1682C6.69062 13.7019 7.39301 13.9967 8.13603 13.9967H9.58725C11.4651 13.9967 12.9918 12.4458 12.9918 10.538V7.0793C12.9947 6.38637 12.4374 5.82319 11.7554 5.82319ZM12.3736 10.541C12.3736 12.1008 11.1226 13.3716 9.58725 13.3716H8.13603C7.55555 13.3716 7.01279 13.1416 6.60355 12.7259L2.19475 8.24695C2.07284 8.12311 2.07284 7.92555 2.19475 7.80171C2.38631 7.6071 2.64172 7.50685 2.90004 7.50685C3.10901 7.50685 3.32089 7.57172 3.49504 7.70735L5.06526 8.90449C5.15813 8.97525 5.28584 8.98705 5.39033 8.93397C5.49482 8.8809 5.56157 8.7718 5.56157 8.65385V2.67702C5.56157 2.32909 5.84021 2.04897 6.17979 2.04897C6.51938 2.04897 6.79801 2.33204 6.79801 2.67702V7.3948C6.79801 7.56877 6.93733 7.7103 7.10857 7.7103C7.27981 7.7103 7.41913 7.56877 7.41913 7.3948V5.82319C7.41913 5.47525 7.69776 5.19514 8.03735 5.19514C8.37694 5.19514 8.65557 5.4782 8.65557 5.82319V7.3948C8.65557 7.56877 8.79489 7.7103 8.96613 7.7103C9.13737 7.7103 9.27669 7.56877 9.27669 7.3948V6.45124C9.27669 6.10331 9.55532 5.82319 9.89491 5.82319C10.2345 5.82319 10.5131 6.10626 10.5131 6.45124V7.3948C10.5131 7.56877 10.6524 7.7103 10.8237 7.7103C10.9949 7.7103 11.1342 7.56877 11.1342 7.3948V7.0793C11.1342 6.73136 11.4129 6.45124 11.7525 6.45124C12.0921 6.45124 12.3707 6.73431 12.3707 7.0793L12.3736 10.541Z" fill="white"/>
<path d="M11.3063 2.21146L12.3715 1.10573L11.3063 0L11.1583 0.153328L11.971 0.99663H8.04688V1.21483H11.971L11.1583 2.05813L11.3063 2.21146Z" fill="#40C1FF"/>
<path d="M1.06519 0L0 1.10573L1.06519 2.21146L1.21322 2.05813L0.400536 1.21483H4.32463V0.99663H0.400536L1.21322 0.153328L1.06519 0Z" fill="#40C1FF"/>
</g>
</g>
<defs>
<clipPath id="clip0_447_254">
<rect width="13" height="14" fill="white"/>
</clipPath>
</defs>
</svg>

<svg width="117" height="14" fill="none" xmlns="http://www.w3.org/2000/svg"><g opacity=".9"><path d="m21.944 10 2.768-5.744L27.48 10h-.784l-1.984-4.192L22.728 10h-.784Zm6.238.064V6h.68v2.672l2.896-2.736V10h-.68V7.368l-2.896 2.696Zm6.725 0c-.586 0-1.077-.197-1.472-.592-.389-.4-.584-.89-.584-1.472 0-.581.195-1.07.584-1.464.395-.4.886-.6 1.472-.6.608 0 1.118.21 1.528.632l-.44.48a1.49 1.49 0 0 0-1.088-.464c-.389 0-.712.136-.968.408-.25.267-.376.603-.376 1.008s.126.744.376 1.016c.256.267.579.4.968.4a1.49 1.49 0 0 0 1.088-.464l.44.48c-.41.421-.92.632-1.528.632ZM38.216 10V6.624h-1.264V6h3.264v.624h-1.32V10h-.68Zm5.822 0v-.4c-.341.31-.765.464-1.272.464-.587 0-1.075-.197-1.464-.592-.384-.395-.576-.885-.576-1.472s.192-1.077.576-1.472c.39-.395.877-.592 1.464-.592.507 0 .93.155 1.272.464V6h.688v4h-.688Zm-1.256-.584c.277 0 .525-.059.744-.176.219-.117.39-.275.512-.472V7.232a1.328 1.328 0 0 0-.512-.472 1.549 1.549 0 0 0-.744-.176c-.39 0-.712.136-.968.408-.25.267-.376.603-.376 1.008s.125.744.376 1.016c.256.267.579.4.968.4Zm3.306.648V6h.68v2.672l2.895-2.736V10h-.68V7.368l-2.895 2.696Zm2.6-5.744h.551c-.01.405-.13.715-.36.928-.229.213-.533.32-.911.32-.385 0-.691-.107-.92-.32-.224-.219-.342-.528-.352-.928h.544c.005.261.072.461.2.6.133.133.309.2.528.2a.677.677 0 0 0 .511-.2c.129-.133.198-.333.209-.6ZM51.82 10V6.624h-1.264V6h3.264v.624H52.5V10h-.68Zm4.558.064c-.587 0-1.077-.197-1.472-.592-.39-.4-.584-.89-.584-1.472 0-.581.195-1.07.584-1.464.39-.4.864-.6 1.424-.6.57 0 1.035.2 1.392.6.363.395.55.939.56 1.632h-3.248c.032.373.176.675.432.904.261.23.566.344.912.344.459 0 .848-.16 1.168-.48l.44.48c-.41.432-.947.648-1.608.648Zm-.088-3.496c-.272 0-.525.085-.76.256-.234.165-.386.413-.456.744h2.432c-.048-.32-.184-.568-.408-.744a1.232 1.232 0 0 0-.808-.256ZM61.461 10V6h1.697c.448 0 .792.096 1.032.288.24.187.36.45.36.792 0 .352-.141.619-.424.8.459.165.688.488.688.968 0 .347-.125.627-.376.84-.246.208-.61.312-1.096.312h-1.88Zm.689-2.328h1.088a.666.666 0 0 0 .416-.128c.117-.09.176-.224.176-.4 0-.176-.059-.31-.176-.4a.66.66 0 0 0-.416-.136H62.15v1.064Zm0 1.72h1.248c.202 0 .368-.05.496-.152.128-.101.192-.25.192-.448a.519.519 0 0 0-.192-.432.775.775 0 0 0-.496-.152H62.15v1.184Zm3.098.608 2.112-4.064L69.48 10h-.784l-1.328-2.656L66.016 10h-.768Zm6.67.064c-.587 0-1.078-.197-1.472-.592-.39-.4-.584-.89-.584-1.472 0-.581.194-1.07.584-1.464.389-.4.864-.6 1.424-.6.57 0 1.034.2 1.392.6.362.395.549.939.56 1.632h-3.248c.032.373.176.675.432.904.261.23.565.344.912.344.458 0 .848-.16 1.168-.48l.44.48c-.411.432-.947.648-1.608.648Zm-.088-3.496c-.272 0-.526.085-.76.256-.235.165-.387.413-.456.744h2.432c-.048-.32-.184-.568-.408-.744a1.232 1.232 0 0 0-.808-.256ZM74.84 10V6h1.696c.448 0 .792.096 1.032.288.24.187.36.45.36.792 0 .352-.141.619-.424.8.459.165.688.488.688.968 0 .347-.125.627-.376.84-.245.208-.61.312-1.096.312h-1.88Zm.688-2.328h1.088a.666.666 0 0 0 .416-.128c.118-.09.176-.224.176-.4 0-.176-.058-.31-.176-.4a.66.66 0 0 0-.416-.136h-1.088v1.064Zm0 1.72h1.248c.203 0 .368-.05.496-.152.128-.101.192-.25.192-.448a.519.519 0 0 0-.192-.432.775.775 0 0 0-.496-.152h-1.248v1.184Zm5.562.672c-.598 0-1.094-.197-1.488-.592-.395-.4-.592-.89-.592-1.472 0-.581.197-1.07.592-1.464.394-.4.89-.6 1.488-.6.592 0 1.085.2 1.48.6.394.395.592.883.592 1.464s-.198 1.072-.592 1.472c-.395.395-.888.592-1.48.592Zm-.984-1.048c.256.267.584.4.984.4s.725-.133.976-.4c.256-.272.384-.61.384-1.016 0-.405-.128-.741-.384-1.008-.25-.272-.576-.408-.976-.408s-.728.136-.984.408c-.256.267-.384.603-.384 1.008s.128.744.384 1.016Zm3.732.984 2.752-5.68h.648L84.486 10h-.648Zm4.154 0V6h1.696c.448 0 .792.096 1.032.288.24.187.36.45.36.792 0 .352-.141.619-.424.8.459.165.688.488.688.968 0 .347-.125.627-.376.84-.245.208-.61.312-1.096.312h-1.88Zm.688-2.328h1.088a.666.666 0 0 0 .416-.128c.118-.09.176-.224.176-.4 0-.176-.058-.31-.176-.4a.66.66 0 0 0-.416-.136H88.68v1.064Zm0 1.72h1.248c.203 0 .368-.05.496-.152.128-.101.192-.25.192-.448a.519.519 0 0 0-.192-.432.775.775 0 0 0-.496-.152H88.68v1.184Zm3.746.608V6h3.432v4h-.688V6.624h-2.056V10h-.688Zm4.792-4h.688v.4c.326-.31.75-.464 1.272-.464.587 0 1.072.197 1.456.592.39.395.584.885.584 1.472s-.194 1.077-.584 1.472c-.384.395-.869.592-1.456.592-.522 0-.946-.155-1.272-.464v1.872h-.688V6Zm1.944 3.416c.39 0 .71-.133.96-.4.256-.272.384-.61.384-1.016 0-.405-.128-.741-.384-1.008a1.246 1.246 0 0 0-.96-.408 1.54 1.54 0 0 0-.752.184 1.29 1.29 0 0 0-.504.464v1.536c.118.192.286.35.504.472.224.117.475.176.752.176Zm6.202.584v-.4c-.341.31-.765.464-1.272.464-.587 0-1.075-.197-1.464-.592-.384-.395-.576-.885-.576-1.472s.192-1.077.576-1.472c.389-.395.877-.592 1.464-.592.507 0 .931.155 1.272.464V6h.688v4h-.688Zm-1.256-.584c.277 0 .525-.059.744-.176.219-.117.389-.275.512-.472V7.232a1.328 1.328 0 0 0-.512-.472 1.55 1.55 0 0 0-.744-.176c-.389 0-.712.136-.968.408-.251.267-.376.603-.376 1.008s.125.744.376 1.016c.256.267.579.4.968.4Zm3.305.584V6h1.696c.448 0 .792.096 1.032.288.24.187.36.45.36.792 0 .352-.141.619-.424.8.459.165.688.488.688.968 0 .347-.125.627-.376.84-.245.208-.61.312-1.096.312h-1.88Zm.688-2.328h1.088a.665.665 0 0 0 .416-.128c.118-.09.176-.224.176-.4 0-.176-.058-.31-.176-.4a.66.66 0 0 0-.416-.136h-1.088v1.064Zm0 1.72h1.248c.203 0 .368-.05.496-.152.128-.101.192-.25.192-.448a.519.519 0 0 0-.192-.432.774.774 0 0 0-.496-.152h-1.248v1.184Zm5.562.672c-.597 0-1.093-.197-1.488-.592-.395-.4-.592-.89-.592-1.472 0-.581.197-1.07.592-1.464.395-.4.891-.6 1.488-.6.592 0 1.085.2 1.48.6.395.395.592.883.592 1.464s-.197 1.072-.592 1.472c-.395.395-.888.592-1.48.592Zm-.984-1.048c.256.267.584.4.984.4s.725-.133.976-.4c.256-.272.384-.61.384-1.016 0-.405-.128-.741-.384-1.008-.251-.272-.576-.408-.976-.408s-.728.136-.984.408c-.256.267-.384.603-.384 1.008s.128.744.384 1.016Z" fill="#fff"/><g clip-path="url(#a)"><path d="M11.755 5.823c-.255 0-.49.08-.688.212a1.24 1.24 0 0 0-1.17-.84c-.255 0-.49.08-.687.212a1.24 1.24 0 0 0-1.17-.84c-.226 0-.438.062-.618.168V2.677a1.25 1.25 0 0 0-1.24-1.259c-.684 0-1.239.563-1.239 1.259v5.346l-1.076-.82a1.602 1.602 0 0 0-2.11.153.952.952 0 0 0 0 1.333l4.408 4.48a2.751 2.751 0 0 0 1.971.828h1.451c1.878 0 3.405-1.551 3.405-3.459V7.079a1.246 1.246 0 0 0-1.237-1.256Zm.619 4.718c0 1.56-1.251 2.83-2.787 2.83H8.136c-.58 0-1.123-.23-1.532-.645l-4.41-4.48a.317.317 0 0 1 0-.444.987.987 0 0 1 1.301-.095l1.57 1.197a.309.309 0 0 0 .497-.25V2.677c0-.348.278-.628.618-.628.34 0 .618.283.618.628v4.718c0 .174.14.315.31.315.172 0 .311-.141.311-.315V5.823c0-.348.279-.628.618-.628.34 0 .619.283.619.628v1.572c0 .174.139.315.31.315.171 0 .31-.141.31-.315V6.45c0-.348.28-.628.619-.628.34 0 .618.283.618.628v.944c0 .174.14.315.31.315.172 0 .311-.141.311-.315v-.316c0-.348.279-.628.618-.628.34 0 .619.283.619.628l.003 3.462Z" fill="#fff"/><path d="m11.306 2.211 1.066-1.105L11.305 0l-.148.153.813.844H8.047v.218h3.924l-.813.843.148.153ZM1.065 0 0 1.106 1.065 2.21l.148-.153-.812-.843h3.924V.997H.4l.812-.844L1.065 0Z" fill="#40C1FF"/></g></g><defs><clipPath id="a"><path fill="#fff" d="M0 0h13v14H0z"/></clipPath></defs></svg>
